X:1
T:Dixit Dominus - Giovannelli
T:#
%%score [ 1 2 3 4 ]
L:1/8
Q:1/4=130
M:4/4
K:C
V:1 treble nm="Soprano" snm="S"
V:2 treble nm="Alto" snm="A"
V:3 treble-8 nm="Tenor" snm="T"
V:4 treble nm="Bass" snm="B"
V:1
 z28 |[K:Eb][K:treble][Q:1/4=200][Q:1/4=200][Q:1/4=200][Q:1/4=200] c8 c4 c4 | _d8 c8 | (B8 G6 A2 | %4
w: |Se- de a|dex- tris|me\- * *|
 B8 c4 B4 | A4 G6 F2 F4- | F2 =ED E4) F4 c4- | c4 c4 c8 |[M:4/2] c4 B8 B4 | c4 d4 e8 | %10
w: ||* * * * is. Do\-|* nec po-|nam i- ni-|mi- cus tu-|
 d4 B4 B4 B4 | B16 | c8 c8 | c8 c8 | A8 A4 A4 | B4 c8 =B4 | c4 c4 c4 G4 | B6 B2 B4 B4 | B8 B4 B4- | %19
w: os, sca- bel- lum|pe-|dum tu-|o- rum.|Vir- gam vir-|tu- tis tu-|ae e- mit- tet|Do- mi- nus ex|Si- on: do\-|
 B4 B4 B8 | A12 A4 | G6 G2 G4 G4 | =A4 B8 A4 | B4 c4 c8- | c8 c8 | =A8 A4 A4 | B6 B2 B4 B4 | %27
w: * mi- na-|re in|me- di- o i-|ni- mi- co-|rum tu- o\-|* rum.|Te- cum prin-|ci- pi- um in|
 c4 c2 B2 c2 B2 B4 | B4 B8 B4 | c6 c2 c2 c2 c4 | c4 c4 d6 d2 | d4 B4 B4 B4 | B6 B2 B8 | B12 B4 | %34
w: di- e vir- tu- tis tu-|ae, in splen-|do- ri- bus san- cto-|rum: ex u- te-|ro an- te lu-|ci- fe- rum|ge- nu-|
 B8 B8 | B8 B4 B4 | c6 c2 B4 B4- | B2 B2 c2 A2 B2 B4 =A2 | B4 B6 B2 B2 B2 | c2 c2 c4 c8 || %40
w: i te.|Ju- ra- vit|Do- mi- nus et|* non poe- ni- te- bit e-|um, et non poe- ni-|te- bit e- um:|
[M:3/1][Q:1/4=400] c8 c8 e8 | d16 d8 | %42
w: Tu es sa-|cer- dos,|
[M:3/1][Q:1/4=400][Q:1/4=400][Q:1/4=400][Q:1/4=400] c8 c8 c8 | c16 c8 | c16 d8 | e16 e8 | %46
w: tu es sa-|cer- dos|in ae-|ter- num|
 c8 A8 B8 | c12 c4 c8 | c8 _d8 c8 | c24 | c8 c8 c8 | c16 c8 | d16 d8 | e16 e8 | c8 c8 c8 | %55
w: se- cun- dum|or- di- nem|Mel- chi- se-|dech,|tu es sa-|cer- dos|in ae-|ter- num|se- cun- dum|
 B12 B4 B8 | A8 G8 G8 ||[Q:1/4=200] =A8 A8- | A4 =A4 A4 A4 | B4 B4 A8 | %60
w: or- di- nem|Mel- chi- se-|dech. Do\-|* mi- nus a|dex- tris tu-|
[M:4/2][Q:1/4=200][Q:1/4=200][Q:1/4=200][Q:1/4=200] G8 z4 e4 | d4 e2 B2 B4 B2 B2 | A4 A4 B6 B2 | %63
w: is: con-|fre- git, con- fre- git in|di- e i- rae|
 c2 c2 c4 c4 A4- | A4 A4 G8- | G8 =A8- | A4 B4 B4 B4 | B6 B2 B4 e4 | c4 c2 e2 c8 | c8 c2 c2 c2 c2 | %70
w: su- ae re- ges. Ju\-|* di ca\-|* bit|* in na- ti-|o- ni- bus, im-|ple- bit ru- i-|nas: con- quas- sa- bit|
 c6 c2 B4 B4 | A8 B4 c4- | c4 =B4 c8 | A12 c4 | (A2 B2 c2 d2 e2 d2 c2 B2 | A8) G8 | %76
w: ca- pi- ta in|ter- ra mul\-|* to- rum.|De tor-|ren\- * * * * * * *|* te|
 z4 G4 A2 A2 G4 | A4 z4 z4 =A4 | B6 B2 B4 B2 B2 | c2 G2 B4 B4 B4 | c6 c2 B8 | z4 d4 e8 | %82
w: in vi- a bi-|bet: pro-|pte- re- a ex- al-|ta- bit ca- put, pro-|pte- re- a|ex- al-|
 (c6 B2 A8- | A4) A4 G8- | G8 !fermata!=A16 || =A12 A4 | =A8 (B6 c2) | (_d2 c2 B4) =A8 | c8 c4 B4 | %89
w: ta\- * *|* bit ca\-|* put.|Glo- ri-|a Pa\- *|* * * tri,|et Fi- li-|
 B4 B4 B4 c4- | c2 c2 c4 c8 | c8 =A8- | A4 =A4 B4 B4 | c4 e4 c6 c2 | B4 B4 c2 c2 c4 | %95
w: o, et Spi- ri\-|* tu- i san-|cto: Si\-|* cut e- rat|in prin- ci- pi-|o, et nunc, et sem-|
 c4 A4 B2 c4 =B2 | c8 c8- | c4 c4 d6 d2 | d8 e8- | e4 e4 d8 | c8 c8- | %101
w: per, et nunc, et sem-|per, et|* in sae- cu-|la sae\-|* cu- lo-|rum, A\-|
 c8 A4[Q:1/4=199] (F2[Q:1/4=198] G2 |[Q:1/4=196] A2[Q:1/4=195] B2[Q:1/4=192] c8)[Q:1/4=189] G4 | %103
w: * men, A\- *|* * * men,|
[Q:1/4=186] z4[Q:1/4=183] (c8[Q:1/4=179] _d4- | %104
w: A\- *|
[Q:1/4=178] d2[Q:1/4=177] e2[Q:1/4=175] f2[Q:1/4=174] e2[Q:1/4=173] _d2[Q:1/4=172] c2[Q:1/4=171] d4) | %105
w: |
[Q:1/4=170] !fermata!c16 |] %106
w: men.|
V:2
 z28 |[K:Eb][K:treble] G8 G4 G4 | B4 F4 (A6 G2 | F8) E4 G4 | G4 F4 A4 G4 | (F4 E4 _D8 | %6
w: |Se- de a|dex- tris me\- *|* is, se-|de a dex- tris|me\- * *|
 C8) C4 A4- | A4 A4 G8 |[M:4/2] A4 F8 G4 | A4 B4 (G4 A4) | B4 F4 F4 F4 | (G8 F8) | A8 A8 | G8 =A8 | %14
w: * is. Do\-|* nec po-|nam i- ni-|mi- cus tu\- *|os, sca- bel- lum|pe\- *|dum tu-|o- rum.|
 z4 F4 F4 F4 | G4 G4 G8 | G4 G4 G4 E4 | F6 F2 F4 G4 | F8 G8 | F12 F4 | F8 F4 F4 | =E6 E2 E4 E4 | %22
w: Vir- gam vir-|tu- tis tu-|ae e- mit- tet|Do- mi- nus ex|Si- on:|do- mi-|na- re in|me- di- o i-|
 F4 F4 F8 | F4 A4 G8- | G8 =A8 | z4 F4 F4 F4 | F6 F2 F4 F4 | A4 A2 B2 A2 G2 F4 | G4 G8 G4 | %29
w: ni- mi- co-|rum tu- o\-|* rum.|Te- cum prin-|ci- pi- um in|di- e vir- tu- tis tu-|ae, in splen-|
 A6 A2 A2 A2 G4 | =A4 A4 B6 B2 | B4 F4 F4 F4 | G6 G2 G8 | F12 F4 | F8 G8 | G8 G4 G4 | %36
w: do- ri- bus san- cto-|rum: ex u- te-|ro an- te lu-|ci- fe- rum|ge- nu-|i te.|Ju- ra- vit|
 A6 A2 G4 G4- | G2 G2 E2 F2 G2 G2 F4 | F4 F6 F2 F2 F2 | A2 A2 G4 =A8 ||[M:3/1] =A8 A8 B8 | B16 B8 | %42
w: Do- mi- nus et|* non poe- ni- te- bit e-|um, et non poe- ni-|te- bit e- um:|Tu es sa-|cer- dos,|
[M:3/1] G8 G8 A8 | G16 G8 | A16 F8 | A16 A8 | A8 A8 G8 | A12 A4 A8 | F8 B8 G8 | A24 | G8 G8 G8 | %51
w: tu es sa-|cer- dos|in ae-|ter- num|se- cun- dum|or- di- nem|Mel- chi- se-|dech,|tu es sa-|
 =A16 A8 | B16 B8 | B16 B8 | A8 A8 A8 | G12 G4 F8 | F8 =E8 E8 || F8 F8- | F4 F4 F4 F4 | F4 G4 E8 | %60
w: cer- dos|in ae-|ter- num|se- cun- dum|or- di- nem|Mel- chi- se-|dech. Do\-|* mi- nus a|dex- tris tu-|
[M:4/2] E8 z4 G4 | F4 E2 G2 F4 G2 G2 | E4 F4 F6 G2 | E2 A2 G4 A4 F4- | F4 F4 =E8- | E8 F8 | %66
w: is: con-|fre- git, con- fre- git in|di- e i- rae|su- ae re- ges. Ju\-|* di ca\-|* bit|
 F8 F4 F4 | G6 G2 G4 B4 | A4 A2 G2 A8 | A8 A2 A2 A2 G2 | A6 A2 G4 G4 | F8 G4 G4 | G8 G8 | F16 | %74
w: in na- ti-|o- ni- bus, im-|ple- bit ru- i-|nas: con- quas- sa- bit|ca- pi- ta in|ter- ra mul-|to- rum.|De|
 F8 (E8 | F8) =E4 E4 | F2 F4 =E2 F4 z2 E2 | F2 F4 =E2 F4 F4 | F6 F2 F4 F2 F2 | A2 E2 F4 G4 G4 | %80
w: tor- ren\-|* te in|vi- a bi- bet, in|vi- a bi- bet: pro-|pte- re- a ex- al-|ta- bit ca- put, pro-|
 A6 A2 G8 | B8 (E6 F2 | G4) (A6 G2 F2 E2 | F4) F8 (=E2 D2 | =E8) !fermata!F16 || F12 F4 | F8 F8- | %87
w: pte- re- a|ex- al\- *|* ta\- * * *|* bit ca\- *|* put.|Glo- ri-|a Pa\-|
 F8 F8 | A8 A4 F4 | G4 G4 G4 A4- | A2 A2 A4 G8 | =A8 z4 F4- | F4 F4 F4 G4 | A4 B4 A6 A2 | %94
w: * tri,|et Fi- li-|o, et Spi- ri\-|* tu- i san-|cto: Si\-|* cut e- rat|in prin- ci- pi-|
 G4 G4 A2 A2 G4 | A4 F4 G2 G2 G4 | G8 =A8- | A4 =A4 B6 B2 | B8 B8- | B4 B4 B8 | A8 G8- | G8 F8 | %102
w: o, et nunc, et sem-|per, et nunc, et sem-|per, et|* in sae- cu-|la sae\-|* cu- lo-|rum, A\-|* men,|
 z4 (C6 D2 E2 F2 | G4 A6 G2 F2 E2 | _D2 C2 B,4) F8 | !fermata!F16 |] %106
w: A\- * * *|||men.|
V:3
[K:Eb]"^Dixit Dominus""^Ruggiero Giovannelli\n(1560-1625)""^Psalm 110 (Vulgate 109)" A2 B2 c2 c2 c2 c2 c2 _d2 c2 c2 B2 B2 c4 | %1
w: Di- xit * Do- mi- nus Do\- * mi- no me- o. *|
 e8 e4 e4 | f12 e4 | (d8 e8 | d8) c4 e4 | c4 c4 A4 B4 | G8 F4 f4- | f4 f4 =e8 | %8
w: Se- de a|dex- tris|me\- *|* is, se-|de a dex- tris|me- is. Do\-|* nec po-|
[M:4/2][K:treble-8] f4 d8 _e4 | e4 g4 e8 | f4 d4 d4 d4 | e8 (d6 e2 | f8) f4 (f4- | f2 =ed e4) f8 | %14
w: nam i- ni-|mi- cus tu-|os, sca- bel- lum|pe- dum *|* tu- o\-|* * * * rum.|
 c8 c4 c4 | e4 e4 d8 | c4 e4 e4 e4 | d6 d2 d4 e4- | e4 d4 e8 | d12 d4 | c8 c4 c4 | c6 c2 c4 c4 | %22
w: Vir- gam vir-|tu- tis tu-|ae e- mit- tet|Do- mi- nus ex|* Si- on:|do- mi-|na- re in|me- di- o i-|
 c4 d4 c8 | d4 f8 (=e2 d2 | =e8) f8 | c8 c4 c4 | d6 d2 d4 d4 | e4 e2 e2 e2 e2 d4 | e4 e8 e4 | %29
w: ni- mi- co-|rum tu- o\- *|* rum.|Te- cum prin-|ci- pi- um in|di- e vir- tu- tis tu-|ae, in splen-|
 e6 e2 e2 f4 =e2 | f4 f4 f6 f2 | f4 d4 d4 d4 | e6 e2 e4 (e4- | e4 d2 c2 d4) d4 | d8 e8 | e8 e4 e4 | %36
w: do- ri- bus san- cto-|rum: ex u- te-|ro an- te lu-|ci- fe- rum ge\-|* * * * nu-|i te.|Ju- ra- vit|
 e6 e2 e4 e4- | e2 e2 c2 c2 d2 e2 c4 | d4 d6 d2 d2 d2 | c2 f4 =e2 f8 ||[M:3/1] f8 f8 g8 | f16 f8 | %42
w: Do- mi- nus et|* non poe- ni- te- bit e-|um, et non poe- ni-|te- bit e- um:|Tu es sa-|cer- dos,|
[M:3/1][K:treble-8] =e8 e8 f8 | =e16 e8 | f16 d8 | c16 c8 | c8 c8 e8 | e12 e4 e8 | f8 f8 =e8 | %49
w: tu es sa-|cer- dos|in ae-|ter- num|se- cun- dum|or- di- nem|Mel- chi- se-|
 f24 | =e8 e8 e8 | f16 f8 | f16 f8 | g16 g8 | e8 e8 e8 | e12 e4 d8 | c8 c8 c8 || c8 c8- | %58
w: dech,|tu es sa-|cer- dos|in ae-|ter- num|se- cun- dum|or- di- nem|Mel- chi- se-|dech. Do\-|
 c4 c4 c4 c4 | d4 e4 c8 |[M:4/2][K:treble-8] B4 e4 d4 e4 | z4 e4 d4 e2 e2 | c4 c4 d6 e2 | %63
w: * mi- nus a|dex- tris tu-|is: con- fre- git,|con- fre- git in|di- e i- rae|
 c2 f2 =e4 f4 F4- | F4 F4 c8- | c8 c8- | c4 d4 d4 d4 | e6 e2 e4 e4 | e4 e2 e2 e8 | e8 e2 e2 e2 e2 | %70
w: su- ae re- ges. Ju\-|* di ca\-|* bit|* in na- ti-|o- ni- bus, im-|ple- bit ru- i-|nas: con- quas- sa- bit|
 e6 e2 e4 e4 | c8 e4 e4 | d8 c4 c4- | c4 c4 (c2 B2 A2 B2 | c16- | c8) c4 c4 | A2 F2 c4 F4 z2 c2 | %77
w: ca- pi- ta in|ter- ra mul-|to- rum. De|* tor- ren\- * * *||* te in|vi- a bi- bet, in|
 A2 F2 c4 F4 c4 | d6 d2 d4 d2 d2 | e2 e4 d2 e4 e4 | e6 e2 e8 | d4 g4 (g6 f2 | e2 d2 c8) c4 | c16- | %84
w: vi- a bi- bet: pro-|pte- re- a ex- al-|ta- bit ca- put, pro-|pte- re- a|ex- al- ta\- *|* * * bit|ca\-|
 c8 !fermata!c16 || c12 c4 | c8 (_d6 c2) | (B2 c2 _d4) c8 | z4 f4 e4 =d4 | e4 e4 e4 e4- | %90
w: * put.|Glo- ri-|a Pa\- *|* * * tri,|et Fi- li-|o, et Spi- ri\-|
 e2 e2 f8 =e4 | f8 c8- | c4 c4 d4 d4 | e4 e4 e6 e2 | e4 e4 e2 f4 =e2 | f4 c4 e2 e2 d4 | =e8 f8- | %97
w: * tu- i san-|cto: Si\-|* cut e- rat|in prin- ci- pi-|o, et nunc, et sem-|per, et nunc, et sem-|per, et|
 f4 f4 f6 f2 | f8 g8- | g4 g4 f8 | f4 (f8 =e2 d2 | =e8) f8 | (F2 G2 A2 B2 c6 d2 | e8) f4 (f4- | %104
w: * in sae- cu-|la sae\-|* cu- lo-|rum, A\- * *|* men,|A\- * * * * *|* men, A\-|
 f2 e2 _d2 c2 B2 A2 B4- | B4 =A2 G2) !fermata!A8 |] %106
w: |* * * men.|
V:4
 z28 |[K:Eb][K:bass] C8 C4 C4 | B,8 A,8 | (B,8 C8 | B,8 A,4 E,4 | F,4 C,4 _D,4 B,,4 | %6
w: |Se- de a|dex- tris|me\- *|||
 C,8) F,4 F,4- | F,4 F,4 C8 |[M:4/2] F,4 B,8 E,4 | A,4 G,4 C8 | B,4 B,4 B,4 B,4 | %11
w: * is. Do\-|* nec po-|nam i- ni-|mi- cus tu-|os, sca- bel- lum|
 (E,2 F,2 G,2 A,2 B,8) | F,4 F,4 (F,2 G,2 A,2 B,2 | C8) F,8 | F,8 F,4 F,4 | E,4 C,4 G,8 | %16
w: pe\- * * * *|dum tu- o\- * * *|* rum.|Vir- gam vir-|tu- tis tu-|
 C,4 C4 C4 C4 | B,6 B,2 B,4 G,4 | B,8 E,8 | B,,12 B,,4 | F,8 F,4 F,4 | C,6 C,2 C,4 C,4 | %22
w: ae e- mit- tet|Do- mi- nus ex|Si- on:|do- mi-|na- re in|me- di- o i-|
 F,4 B,,4 F,8 | B,4 F,4 C8- | C8 F,8 | F,8 F,4 F,4 | B,6 B,2 B,4 B,4 | A,4 A,2 G,2 A,2 E,2 B,4 | %28
w: ni- mi- co-|rum tu- o\-|* rum.|Te- cum prin-|ci- pi- um in|di- e vir- tu- tis tu-|
 E,4 E,8 E,4 | A,6 A,2 A,2 F,2 C4 | F,4 F,4 B,6 B,2 | B,4 B,4 B,4 B,4 | E,6 E,2 E,8 | B,,12 B,,4 | %34
w: ae, in splen-|do- ri- bus san- cto-|rum: ex u- te-|ro an- te lu-|ci- fe- rum|ge- nu-|
 B,,8 E,8 | E,8 E,4 E,4 | A,6 A,2 E,4 E,4- | E,2 E,2 A,2 A,2 G,2 E,2 F,4 | B,,4 B,6 B,2 B,2 B,2 | %39
w: i te.|Ju- ra- vit|Do- mi- nus et|* non poe- ni- te- bit e-|um, et non poe- ni-|
 F,2 F,2 C4 F,8 ||[M:3/1] F,8 F,8 E,8 | B,16 B,8 |[M:3/1] C8 C8 F,8 | C16 C8 | F,16 B,8 | %45
w: te- bit e- um:|Tu es sa-|cer- dos,|tu es sa-|cer- dos|in ae-|
 A,16 A,8 | A,8 F,8 E,8 | A,12 A,4 A,8 | A,8 B,8 C8 | F,24 | C8 C8 C8 | F,16 F,8 | B,,16 B,,8 | %53
w: ter- num|se- cun- dum|or- di- nem|Mel- chi- se-|dech,|tu es sa-|cer- dos|in ae-|
 E,16 E,8 | A,,8 A,,8 A,,8 | E,12 E,4 B,,8 | F,8 C,8 C,8 || F,8 F,8- | F,4 F,4 F,4 F,4 | %59
w: ter- num|se- cun- dum|or- di- nem|Mel- chi- se-|dech. Do\-|* mi- nus a|
 B,4 G,4 A,8 |[M:4/2] E,4 E,4 B,4 E,4 | z4 E,4 B,4 E,2 E,2 | A,4 F,4 B,6 G,2 | A,2 F,2 C4 F,8 | %64
w: dex- tris tu-|is: con- fre- git,|con- fre- git in|di- e i- rae|su- ae re- ges.|
 z8 z4 C,4- | C,4 C,4 F,8 | F,4 B,,4 B,,4 B,,4 | E,6 E,2 E,4 G,4 | A,4 A,2 C2 A,8 | %69
w: Ju\-|* di ca-|bit in na- ti-|o- ni- bus, im-|ple- bit ru- i-|
 A,,8 A,2 A,2 A,2 C2 | A,6 A,2 E,4 E,4 | F,8 E,4 C,4 | G,8 C,8 | F,12 F,4 | %74
w: nas: con- quas- sa- bit|ca- pi- ta in|ter- ra mul-|to- rum.|De tor-|
 (F,2 G,2 A,2 B,2 C2 B,2 A,2 G,2 | F,8) C,8 | z4 C4 A,2 F,2 C4 | F,4 z4 z4 F,4 | %78
w: ren\- * * * * * * *|* te|in vi- a bi-|bet: pro-|
 B,6 B,2 B,4 B,2 B,2 | A,2 C2 B,4 E,4 E,4 | A,6 A,2 E,8 | G,8 C4 (C4- | C2 B,2 A,2 G,2 F,8- | %83
w: pte- re- a ex- al-|ta- bit ca- put, pro-|pte- re- a|ex- al- ta\-||
 F,4) F,4 C,8- | C,8 !fermata!F,16 || F,12 F,4 | F,8 B,,8- | B,,8 F,8- | F,4 F,4 A,4 B,4 | %89
w: * bit ca\-|* put.|Glo- ri-|a Pa\-|* tri,|* et Fi- li-|
 E,4 E,4 E,4 A,4- | A,2 A,2 F,4 C8 | F,8 F,8- | F,4 F,4 B,4 B,4 | A,4 G,4 A,6 A,2 | %94
w: o, et Spi- ri\-|* tu- i san-|cto: Si\-|* cut e- rat|in prin- ci- pi-|
 E,4 E,4 A,2 F,2 C4 | F,4 F,4 E,2 C,2 G,4 | C,8 F,8- | F,4 F,4 B,6 B,2 | B,,8 E,8- | E,4 E,4 B,8 | %100
w: o, et nunc, et sem-|per, et nunc, et sem-|per, et|* in sae- cu-|la sae\-|* cu- lo-|
 F,8 C8- | C8 F,8 | (F,6 G,2 A,2 B,2 C4- | C2 B,2 A,2 G,2 F,2 E,2 _D,2 C,2 | B,,16) | %105
w: rum, A\-|* men,|A\- * * * *|||
 !fermata!F,16 |] %106
w: men.|

